X:164
%%etbk:tnset id:54,pos:6,rep:3x,ant:
%%etbk:tnset id:64,pos:4,rep:3x+A-Stop,ant:
%%etbk:wsite http://www.thesession.org/tunes/display/11
%%etbk:color #ffffcc
%%etbk:pldat 2016-06-23T19:08,2016-06-22T16:14,2016-06-21T16:14,2016-06-20T18:47,2016-05-05T15:37,2016-05-03T15:23,2016-03-11T16:56,2016-03-09T17:17,2016-03-08T15:50,2016-03-05T15:06,2016-02-26T17:34,2016-02-23T16:46,2016-02-22T18:48,2016-02-07T15:03,2015-11-03T16:20,2015-10-28T16:15,2015-10-26T18:22,2015-10-22T19:17,2015-10-15T19:28,2015-10-06T17:08,2015-10-03T16:20,2015-10-01T18:38,2015-09-08T19:24,2015-06-26T17:34,2015-06-23T18:16,2015-06-16T16:59,2015-05-27T18:56,2015-04-22T15:46,2015-03-12T18:43,2015-03-11T16:57,2015-03-09T18:22,2015-03-03T18:18,2015-02-22T16:22,2015-02-17T17:40,2015-02-14T13:12,2015-02-11T16:19,2015-02-10T17:49,2015-01-28T17:07,2014-11-05T19:00,2014-11-04T17:06,2014-11-02T15:18,2014-10-29T16:11,2014-10-24T18:20,2014-10-12T14:09,2014-08-21T19:11,2014-08-18T18:39,2014-06-23T18:45,2014-05-28T16:50,2014-03-05T19:34,2014-03-02T15:57,2014-02-25T19:11,2014-02-12T18:08,2013-10-30T15:39,2013-10-28T18:21,2013-10-24T18:52,2013-10-18T16:05,2013-10-14T18:46,2013-10-09T16:20,2013-08-29T16:39
T: Boys Of Malin, The
Z: Piano Box Version by Martin Fleischmann
H: Created 2013-02-19 /  Last Modified 2015-02-09
M: 4/4
L: 1/8
R: reel
K: Amaj
|: "A"!1!A!1!B!2!cd !4!e!1!A!2!c!4!e | "D"!5!fedf !4!e!3!d!2!c!1!B | "A"!1!Az!2!cd !4!e!1!A!2!c!4!e |1 "E"!5!f!3!d!1!Bc !3!d2c!1!B:|2 "E"!5!f!3!d!1!B!2!c !1!def!4!g||
| "A"!5!a2!1!AA !2!c!1!A!2!c!3!e | !5!a2ag !3!fefg | !5!a!1!A !3!(3A!2!A!1!A !2!c!1!A!2!c!4!e | "E"!3!dc!1!B!2!c !1!def!4!g |
"A"!5!a2!1!AA !2!c!1!A!2!c!3!e | !5!a2ag !3!fefg  | !5!a2!4!ge !3!fd!4!e!2!c | "E"!3!dd!1!Bc !3!d2c!1!B |
|: "A"!1!A!4!e!2!ce Aece | Aec!4!e "D"!3!d2c!1!B | "A"!1!A!4!e!2!ce Aec!4!e | "E"!5!f!3!d!1!B!2!c !3!ddc!1!B:|


